static/assets/images/linkedin.svg

<svg fill="none" height="20" viewBox="0 0 20 20" width="20" xmlns="http://www.w3.org/2000/svg" xmlns:xlink="http://www.w3.org/1999/xlink"><clipPath id="a"><path d="m0 .293457h20v19.6139h-20z"/></clipPath><g clip-path="url(#a)"><path d="m15.8333.293457h-11.66663c-2.30084 0-4.16667 1.829813-4.16667 4.086233v11.44141c0 2.2564 1.86583 4.0863 4.16667 4.0863h11.66663c2.3017 0 4.1667-1.8299 4.1667-4.0863v-11.44141c0-2.25642-1.865-4.086233-4.1667-4.086233zm-9.16663 15.527643h-2.5v-8.98968h2.5zm-1.25-10.02594c-.805 0-1.45834-.64563-1.45834-1.44163 0-.79599.65334-1.44162 1.45834-1.44162s1.45833.64563 1.45833 1.44162c0 .796-.6525 1.44163-1.45833 1.44163zm11.25003 10.02594h-2.5v-4.5798c0-2.7525-3.3334-2.5441-3.3334 0v4.5798h-2.49997v-8.98968h2.49997v1.44244c1.1634-2.1134 5.8334-2.26949 5.8334 2.02354z" fill="#79b2ff"/></g></svg>

<svg width="20" height="20" viewBox="0 0 20 20" fill="none" xmlns="http://www.w3.org/2000/svg">
<g clip-path="url(#clip0_133_170)">
<path d="M15.8333 0.293457H4.16667C1.86583 0.293457 0 2.12327 0 4.37969V15.8211C0 18.0775 1.86583 19.9074 4.16667 19.9074H15.8333C18.135 19.9074 20 18.0775 20 15.8211V4.37969C20 2.12327 18.135 0.293457 15.8333 0.293457ZM6.66667 15.8211H4.16667V6.83142H6.66667V15.8211ZM5.41667 5.79516C4.61167 5.79516 3.95833 5.14953 3.95833 4.35353C3.95833 3.55754 4.61167 2.91191 5.41667 2.91191C6.22167 2.91191 6.875 3.55754 6.875 4.35353C6.875 5.14953 6.2225 5.79516 5.41667 5.79516ZM16.6667 15.8211H14.1667V11.2413C14.1667 8.4888 10.8333 8.6972 10.8333 11.2413V15.8211H8.33333V6.83142H10.8333V8.27386C11.9967 6.16046 16.6667 6.00437 16.6667 10.2974V15.8211Z" fill="#79B2FF"/>
</g>
<defs>
<clipPath id="clip0_133_170">
<rect width="20" height="19.6139" fill="white" transform="translate(0 0.293457)"/>
</clipPath>
</defs>
</svg>
